2020-Janeiro-Leitura-Organica/henry-ns/src/assets/spot-1.svg

<svg width="1375" height="1182" viewBox="0 0 1375 1182" fill="none" xmlns="http://www.w3.org/2000/svg">
<g clip-path="url(#clip0)">
<path opacity="0.1" d="M883.147 364.397C809.054 333.078 746.788 281.502 688.633 228.88C630.478 176.257 574.067 121.018 506.145 78.9509C462.458 51.8927 409.029 30.0027 361.397 40.7432C315.526 51.1202 287.685 88.5297 266.448 125.048C250.467 152.516 235.874 182.269 238.486 214.705C240.29 237.222 250.309 259.397 254.462 281.961C269.032 360.271 211.67 428.04 145.896 473.917C115.055 495.451 81.5294 514.443 54.4854 539.542C27.4415 564.641 6.82302 597.421 8.07272 634.083C9.31556 670.449 31.8181 705.957 59.5873 735.517C116.005 795.571 193.91 836.363 271.435 872.238C442.988 951.641 622.071 1014.13 800.69 1076.44C866.799 1099.5 933.195 1122.63 1001.36 1137.12C1039.22 1145.16 1079.48 1150.36 1113.63 1138.77C1156.97 1124.06 1182.8 1080.96 1173.83 1038.32C1158.78 966.778 1062 913.439 1059.65 841.931C1058.39 802.592 1087.45 770.42 1120.15 746.872C1190.31 696.384 1287.29 665.632 1320.69 590.03C1343.64 538.093 1328.15 471.397 1282.46 425.201C1234.61 376.691 1152.97 349.307 1093.63 376.453C1032.48 404.424 948.566 392.041 883.147 364.397Z" fill="#3198AF"/>
</g>
<defs>
<clipPath id="clip0">
<rect width="1375" height="1182" fill="white"/>
</clipPath>
</defs>
</svg>

<svg width="1375" height="1182" fill="none" xmlns="http://www.w3.org/2000/svg"><g clip-path="url(#clip0)"><path opacity=".1" d="M883.147 364.397c-74.093-31.319-136.359-82.895-194.514-135.517-58.155-52.623-114.566-107.862-182.488-149.93-43.687-27.057-97.116-48.947-144.748-38.207-45.871 10.377-73.712 47.787-94.949 84.305-15.981 27.468-30.574 57.221-27.962 89.657 1.804 22.517 11.823 44.692 15.976 67.256 14.57 78.31-42.792 146.079-108.566 191.956-30.841 21.534-64.367 40.526-91.41 65.625-27.044 25.099-47.663 57.879-46.413 94.541 1.243 36.366 23.745 71.874 51.514 101.434 56.418 60.054 134.323 100.846 211.848 136.721 171.553 79.403 350.636 141.892 529.255 204.202 66.109 23.06 132.505 46.19 200.67 60.68 37.86 8.04 78.12 13.24 112.27 1.65 43.34-14.71 69.17-57.81 60.2-100.45-15.05-71.542-111.83-124.881-114.18-196.389-1.26-39.339 27.8-71.511 60.5-95.059 70.16-50.488 167.14-81.24 200.54-156.842 22.95-51.937 7.46-118.633-38.23-164.829-47.85-48.51-129.49-75.894-188.83-48.748-61.15 27.971-145.064 15.588-210.483-12.056z" fill="#3198AF"/></g><defs><clipPath id="clip0"><path fill="#fff" d="M0 0h1375v1182H0z"/></clipPath></defs></svg>
